X:655
T:Comb Your Hair and Curl It
R:slip jig
C:Chieftains
Z:
M:9/8
K:Edor
"Em"B2E E2F G2A|"(Bm)"B2e "A"ece "D"dBA|"Em"B2E E2F G2A|"C"B=cB "Am"A2G "(D)"FED:|
||"G"g2e "Em"efe e2f|"G"g2a/2g/2 "Am"efg "(D)"afd|"C"g2e "Em"efe "Ano3"e2c|"D"d2B "(Am)"ABG "(D)"FED|
"C"g2e "Em"efe e2f|"C"g2a/2g/2 "Am"efg "(D)"afd|"G"gfg "D"afd "G"g2e|"D"d2B "G"ABG "D"FED||
